X:1662
R:Visa
Z:Jeff Skinner
T:Bröder, vi har långt att gå
M:2/4
L:1/8
C:CF Weyse
D: From Sweden to America, Caprice Records. CAP 21552
Q: 120
K:Bb
B,>C DE|FGF2|B>A Bc|ddF2|B>A GA|BBD2|E>F GE|C2C2|
D>F BD|F>E DF|D>F BD|F>ED2|B>A Bc|ddF2|B>A GA|BD EF|GE CA,|B,4|]
(:musicend:)

Denna version verkar ha spelats in i Minneapolis år 1974. Det finns [[http://sv.wikisource.org/wiki/Br%C3%B6der_vi_har_l%C3%A5ngt_att_g%C3%A5|text]] till musiken, och åttondelar behövs i fjärde och sjätte takterna i några strofer.
(:music:)
